symbols/web/dry_cleaning/materialsymbolssharp/dry_cleaning_wght300grad200_24px.svg

<svg xmlns="http://www.w3.org/2000/svg" height="24" width="24"><path d="M6.85 22.2v-6.1h-4.1v-4.375l8.2-3.425v-.6q-.875-.35-1.462-1.125Q8.9 5.8 8.9 4.8q0-1.3.9-2.2.9-.9 2.2-.9 1.3 0 2.2.9.9.9.9 2.2h-2.125q0-.4-.287-.675Q12.4 3.85 12 3.85q-.4 0-.675.275t-.275.675q0 .4.275.675T12 5.75h1.1V8.3l8.15 3.425V16.1H17.2v6.1ZM9 15.4h6.05Zm-4.1-1.45h1.95v-.7H17.2v.7h1.9v-.8L12 10.175l-7.1 3Zm4.1 6.1h6.05V15.4H9Z"/></svg>

<svg xmlns="http://www.w3.org/2000/svg" height="24" width="24"><path d="M6.85 22.2V16.1H2.75V11.725L10.95 8.3V7.7Q10.075 7.35 9.488 6.575Q8.9 5.8 8.9 4.8Q8.9 3.5 9.8 2.6Q10.7 1.7 12 1.7Q13.3 1.7 14.2 2.6Q15.1 3.5 15.1 4.8H12.975Q12.975 4.4 12.688 4.125Q12.4 3.85 12 3.85Q11.6 3.85 11.325 4.125Q11.05 4.4 11.05 4.8Q11.05 5.2 11.325 5.475Q11.6 5.75 12 5.75H13.1V8.3L21.25 11.725V16.1H17.2V22.2ZM9 15.4H15.05ZM4.9 13.95H6.85V13.25H17.2V13.95H19.1V13.15L12 10.175L4.9 13.175ZM9 20.05H15.05V15.4H9Z"/></svg>
